dhis-2/dhis-support/dhis-support-system/src/main/resources/SVGs/male_and_female_outline.svg

<svg width="48" height="48" viewBox="0 0 48 48" fill="none" xmlns="http://www.w3.org/2000/svg">
<path fill-rule="evenodd" clip-rule="evenodd" d="M13.6889 8.09766C13.2292 8.09766 12.7741 8.18819 12.3494 8.3641C11.9248 8.54001 11.5389 8.79784 11.2139 9.12288C10.8889 9.44791 10.6311 9.83378 10.4553 10.2584C10.2794 10.6831 10.1889 11.1383 10.1889 11.5979C10.1889 12.5262 10.5577 13.4164 11.214 14.0728C11.8704 14.7291 12.7606 15.0979 13.6889 15.0979C14.6171 15.0979 15.5074 14.7291 16.1637 14.0728C16.8201 13.4164 17.1888 12.5262 17.1888 11.5979C17.1889 11.1383 17.0984 10.6831 16.9225 10.2584C16.7466 9.83378 16.4888 9.44791 16.1638 9.12288C15.8388 8.79784 15.453 8.54001 15.0283 8.3641C14.6037 8.18819 14.1485 8.09766 13.6889 8.09766ZM34.7266 8.09766C32.7936 8.09766 31.2267 9.66464 31.2267 11.5979C31.2267 13.5309 32.7936 15.0979 34.7266 15.0979C36.6596 15.0979 38.2266 13.5309 38.2266 11.5979C38.2266 9.66464 36.6596 8.09766 34.7266 8.09766ZM13.6889 8.65035C14.076 8.6503 14.4593 8.7265 14.817 8.8746C15.1746 9.02271 15.4996 9.23982 15.7734 9.51353C16.0471 9.78724 16.2643 10.1122 16.4124 10.4698C16.5606 10.8275 16.6368 11.2108 16.6368 11.5979C16.6367 12.3796 16.326 13.1293 15.7732 13.6819C15.2203 14.2346 14.4706 14.545 13.6889 14.5449C13.3017 14.5451 12.9183 14.469 12.5606 14.321C12.2029 14.173 11.8778 13.9559 11.6039 13.6823C11.3301 13.4086 11.1128 13.0837 10.9646 12.726C10.8163 12.3684 10.74 11.9851 10.7399 11.5979C10.7399 11.2107 10.8162 10.8273 10.9644 10.4696C11.1126 10.1119 11.3299 9.7869 11.6037 9.51318C11.8776 9.23945 12.2027 9.02236 12.5605 8.87432C12.9182 8.72627 13.3017 8.65017 13.6889 8.65035ZM34.7266 8.65035C36.3536 8.65045 37.6736 9.96993 37.6736 11.5979C37.6736 13.2249 36.3536 14.5449 34.7266 14.5449C33.0976 14.5459 31.7777 13.2259 31.7767 11.5979C31.7777 9.96913 33.0976 8.64945 34.7266 8.65035ZM13.3419 15.9589L10.1539 15.9609V15.9689C9.58153 15.9799 9.03494 16.2959 8.76554 16.8478L4.89649 24.7727C4.51359 25.5577 4.83849 26.4977 5.62298 26.8807C6.40757 27.2637 7.34556 26.9407 7.72845 26.1557L10.1539 21.1858V26.7617V27.9467V29.0937V38.3606C10.1539 39.2336 10.8549 39.9376 11.7289 39.9376C12.6019 39.9376 13.3049 39.2336 13.3049 38.3606V29.0937H13.3419H14.0289H14.0639V38.3606C14.0639 39.2336 14.7679 39.9376 15.6409 39.9376C16.5138 39.9376 17.2168 39.2336 17.2168 38.3606V29.0937V27.9467V26.7617V21.1738L19.6478 26.1557C20.0308 26.9407 20.9708 27.2637 21.7558 26.8807C22.5398 26.4977 22.8628 25.5577 22.4798 24.7727L18.6108 16.8478C18.3408 16.2929 17.7918 15.9739 17.2168 15.9669V15.9589H14.0289H13.3419ZM34.3786 15.9589L31.1907 15.9609V15.9689C30.6187 15.9799 30.0717 16.2959 29.8027 16.8478L25.9337 24.7727C25.5507 25.5577 25.8757 26.4977 26.6597 26.8807C27.4447 27.2637 28.3827 26.9407 28.7657 26.1557L31.1907 21.1858C31.2507 24.5718 31.0197 27.2897 28.9747 31.2497H31.1907V38.3606C31.1907 39.2336 31.8926 39.9376 32.7656 39.9376C33.6386 39.9376 34.3416 39.2336 34.3416 38.3606V31.2497H35.1016V38.3606C35.1016 39.2336 35.8046 39.9376 36.6776 39.9376C37.5506 39.9376 38.2536 39.2336 38.2536 38.3606V31.2497H40.4745C38.6436 27.4307 38.2536 24.9367 38.2536 21.1738L40.6855 26.1557C41.0675 26.9407 42.0075 27.2637 42.7925 26.8807C43.5775 26.4977 43.8995 25.5577 43.5175 24.7727L39.6476 16.8478C39.3776 16.2929 38.8286 15.9739 38.2536 15.9669V15.9589H35.0656H34.3786ZM17.1598 16.5349V16.5469C17.5358 16.5569 17.8938 16.7588 18.0718 17.1208L18.8998 18.7988C18.9098 18.8168 18.9268 18.8248 18.9358 18.8438L21.9938 25.0407C22.2508 25.5597 22.0388 26.1847 21.5198 26.4407C20.9998 26.6977 20.3758 26.4857 20.1188 25.9667L19.2888 24.2868C19.2798 24.2718 19.2638 24.2608 19.2558 24.2418L16.6858 19.0348V21.3608V23.7288V27.4157V30.6387V31.3867V32.2417V34.3256V38.2966C16.6858 38.5856 16.5698 38.8476 16.3808 39.0366C16.1918 39.2246 15.9288 39.3406 15.6409 39.3416C15.3509 39.3416 15.0889 39.2256 14.8999 39.0366C14.7119 38.8476 14.5939 38.5856 14.5939 38.2966V34.3256V32.2417V31.3867V30.6387V28.5487H12.7749V30.6387V31.3867V32.2417V34.3256V38.2966C12.7749 38.8756 12.3079 39.3416 11.7289 39.3416C11.1489 39.3416 10.6839 38.8756 10.6839 38.2966V34.3256V32.2417V31.3867V30.6387V28.2707V27.4157V25.3317V24.5837V23.7288V21.3608V18.9978L8.09565 24.2398C8.08705 24.2588 8.07185 24.2698 8.06245 24.2848L7.23236 25.9647C6.97596 26.4837 6.35137 26.6957 5.83198 26.4387C5.31258 26.1827 5.10099 25.5577 5.35738 25.0387L8.41595 18.8418C8.42475 18.8228 8.44144 18.8158 8.45114 18.7968L9.27923 17.1188C9.47153 16.7288 9.87043 16.5139 10.2769 16.5369L17.1598 16.5349ZM38.1966 16.5349V16.5469C38.5726 16.5569 38.9306 16.7588 39.1086 17.1208L39.9375 18.7988C39.9465 18.8168 39.9635 18.8248 39.9725 18.8438L43.0305 25.0407C43.2875 25.5597 43.0755 26.1847 42.5565 26.4407C42.0365 26.6977 41.4125 26.4857 41.1555 25.9667L40.3255 24.2868C40.3165 24.2718 40.3015 24.2608 40.2925 24.2418L37.7226 19.0348C37.9406 23.0158 37.1086 25.7497 39.5856 30.7107L37.7226 30.6947V31.3867V32.2417V34.3256V38.2966C37.7226 38.5856 37.6066 38.8476 37.4176 39.0366C37.2286 39.2246 36.9666 39.3406 36.6776 39.3416C36.3876 39.3416 36.1256 39.2256 35.9376 39.0366C35.7486 38.8476 35.6306 38.5856 35.6306 38.2966V34.3256V32.2417V31.3867V30.6947H33.8116V31.3867V32.2417V34.3256V38.2966C33.8116 38.8756 33.3446 39.3416 32.7656 39.3416C32.1856 39.3416 31.7207 38.8756 31.7207 38.2966V34.3256V32.2417V31.3867V30.6947H29.8437C32.2496 25.7697 31.4577 23.0098 31.7207 18.9978L29.1327 24.2398C29.1237 24.2588 29.1087 24.2698 29.0997 24.2848L28.2697 25.9647C28.0127 26.4837 27.3887 26.6957 26.8687 26.4387C26.3497 26.1827 26.1377 25.5577 26.3947 25.0387L29.4527 18.8418C29.4617 18.8228 29.4787 18.8158 29.4877 18.7968L30.3157 17.1188C30.5087 16.7298 30.9077 16.5139 31.3137 16.5369L38.1966 16.5349Z" fill="#333333"/>
</svg>

<?xml version="1.0" encoding="UTF-8" standalone="no"?>
<!-- Created with Inkscape (http://www.inkscape.org/) -->
<svg id="svg8" xmlns:rdf="http://www.w3.org/1999/02/22-rdf-syntax-ns#" xmlns="http://www.w3.org/2000/svg" xmlns:osb="http://www.openswatchbook.org/uri/2009/osb" height="48" width="48" version="1.1" xmlns:cc="http://creativecommons.org/ns#" viewBox="0 0 12.7 12.7" xmlns:dc="http://purl.org/dc/elements/1.1/">
 <title id="title4753">UIO-icon</title>
 <metadata id="metadata5">
  <rdf:RDF>
   <cc:Work rdf:about="">
    <dc:format>image/svg+xml</dc:format>
    <dc:type rdf:resource="http://purl.org/dc/dcmitype/StillImage"/>
    <dc:title>UIO-icon</dc:title>
    <dc:creator>
     <cc:Agent>
      <dc:title>Joaquín Urbano</dc:title>
     </cc:Agent>
    </dc:creator>
    <dc:rights>
     <cc:Agent>
      <dc:title>GPL</dc:title>
     </cc:Agent>
    </dc:rights>
   </cc:Work>
  </rdf:RDF>
 </metadata>
 <g id="layer1" transform="translate(0,-284.3)">
  <path id="rect4902" d="m13.689 8.0977a3.5 3.5 0 0 0 -3.5 3.5003 3.5 3.5 0 0 0 3.5 3.5 3.5 3.5 0 0 0 3.5 -3.5 3.5 3.5 0 0 0 -3.5 -3.5003zm21.038 0c-1.933 0-3.5 1.567-3.5 3.5003 0 1.933 1.567 3.5 3.5 3.5s3.5-1.567 3.5-3.5c0-1.9333-1.567-3.5003-3.5-3.5003zm-21.038 0.5527a2.9476 2.9476 0 0 1 2.948 2.9476 2.9476 2.9476 0 0 1 -2.948 2.947 2.9476 2.9476 0 0 1 -2.949 -2.947 2.9476 2.9476 0 0 1 2.949 -2.9476zm21.038 0c1.627 0.0001 2.947 1.3196 2.947 2.9476 0 1.627-1.32 2.947-2.947 2.947-1.629 0.001-2.949-1.319-2.95-2.947 0.001-1.6288 1.321-2.9485 2.95-2.9476zm-21.385 7.3086l-3.188 0.002v0.008c-0.5724 0.011-1.119 0.327-1.3884 0.879l-3.8691 7.925c-0.3829 0.785-0.058 1.725 0.7265 2.108 0.7846 0.383 1.7226 0.06 2.1055-0.725l2.4255-4.97v5.576 1.185 1.147 9.267c0 0.873 0.701 1.577 1.575 1.577 0.873 0 1.576-0.704 1.576-1.577v-9.267h0.037 0.687 0.035v9.267c0 0.873 0.704 1.577 1.577 1.577s1.576-0.704 1.576-1.577v-9.267-1.147-1.185-5.588l2.431 4.982c0.383 0.785 1.323 1.108 2.108 0.725 0.784-0.383 1.107-1.323 0.724-2.108l-3.869-7.925c-0.27-0.555-0.819-0.874-1.394-0.881v-0.008h-3.188-0.687zm21.037 0l-3.188 0.002v0.008c-0.572 0.011-1.119 0.327-1.388 0.879l-3.869 7.925c-0.383 0.785-0.058 1.725 0.726 2.108 0.785 0.383 1.723 0.06 2.106-0.725l2.425-4.97c0.06 3.386-0.171 6.104-2.216 10.064h2.216v7.111c0 0.873 0.702 1.577 1.575 1.577s1.576-0.704 1.576-1.577v-7.111h0.76v7.111c0 0.873 0.703 1.577 1.576 1.577s1.576-0.704 1.576-1.577v-7.111h2.221c-1.831-3.819-2.221-6.313-2.221-10.076l2.432 4.982c0.382 0.785 1.322 1.108 2.107 0.725s1.107-1.323 0.725-2.108l-3.87-7.925c-0.27-0.555-0.819-0.874-1.394-0.881v-0.008h-3.188-0.687zm-17.219 0.576v0.012c0.376 0.01 0.734 0.212 0.912 0.574l0.828 1.678c0.01 0.018 0.027 0.026 0.036 0.045l3.058 6.197c0.257 0.519 0.045 1.144-0.474 1.4-0.52 0.257-1.144 0.045-1.401-0.474l-0.83-1.68c-0.009-0.015-0.025-0.026-0.033-0.045l-2.57-5.207v2.326 2.368 3.687 3.223 0.748 0.855 2.084 3.971c0 0.289-0.116 0.551-0.305 0.74-0.189 0.188-0.452 0.304-0.74 0.305-0.29 0-0.552-0.116-0.741-0.305-0.188-0.189-0.306-0.451-0.306-0.74v-3.971-2.084-0.855-0.748-2.09h-1.819v2.09 0.748 0.855 2.084 3.971c0 0.579-0.467 1.045-1.046 1.045-0.58 0-1.045-0.466-1.045-1.045v-3.971-2.084-0.855-0.748-2.368-0.855-2.084-0.748-0.855-2.368-2.363l-2.5883 5.242c-0.0086 0.019-0.0238 0.03-0.0332 0.045l-0.8301 1.68c-0.2564 0.519-0.881 0.731-1.4004 0.474-0.5194-0.256-0.731-0.881-0.4746-1.4l3.0586-6.197c0.0088-0.019 0.0255-0.026 0.0352-0.045l0.8281-1.678c0.1923-0.39 0.5912-0.605 0.9977-0.582l6.883-0.002zm21.037 0v0.012c0.376 0.01 0.734 0.212 0.912 0.574l0.829 1.678c0.009 0.018 0.026 0.026 0.035 0.045l3.058 6.197c0.257 0.519 0.045 1.144-0.474 1.4-0.52 0.257-1.144 0.045-1.401-0.474l-0.83-1.68c-0.009-0.015-0.024-0.026-0.033-0.045l-2.57-5.207c0.218 3.981-0.614 6.715 1.863 11.676l-1.863-0.016v0.692 0.855 2.084 3.971c0 0.289-0.116 0.551-0.305 0.74-0.189 0.188-0.451 0.304-0.74 0.305-0.29 0-0.552-0.116-0.74-0.305-0.189-0.189-0.307-0.451-0.307-0.74v-3.971-2.084-0.855-0.692h-1.819v0.692 0.855 2.084 3.971c0 0.579-0.467 1.045-1.046 1.045-0.58 0-1.045-0.466-1.045-1.045v-3.971-2.084-0.855-0.692h-1.877c2.406-4.925 1.614-7.685 1.877-11.697l-2.588 5.242c-0.009 0.019-0.024 0.03-0.033 0.045l-0.83 1.68c-0.257 0.519-0.881 0.731-1.401 0.474-0.519-0.256-0.731-0.881-0.474-1.4l3.058-6.197c0.009-0.019 0.026-0.026 0.035-0.045l0.828-1.678c0.193-0.389 0.592-0.605 0.998-0.582l6.883-0.002z" fill-rule="evenodd" transform="matrix(.26458 0 0 .26458 0 284.3)" fill="#333"/>
 </g>
</svg>
